X:1
T:Præsidium Sara
T:Orlando Lasso
T:Præsidium Sara
C:Orlando Lasso
%%score [ 1 2 3 4 ]
L:1/8
Q:1/4=120
M:2/2
K:F
V:1 alto1 nm="Superius" snm="S"
V:2 alto nm="Cantus" snm="C"
V:3 tenor nm="Tenor" snm="T"
V:4 bass nm="Bassus" snm="B"
V:1
 x8 | z2 z2 z2 x2 |[K:G][M:4/2][K:treble] z8 G8- | G8 G8- | G4 G4 G8 | z4 G2 A2 B2 G2 d4- | %6
w: ||Præ-|* si-|* di- um|Sa- * * * *|
 d4 c4 c8- | c4 B4 A6 G2 | A8 B8- | B8 z8 | e16 | B4 B8 d4 | ^c4 e6 d2 d4- | d2 ^cB c4 d4 A4 | %14
w: * ra dul-|* ce me- *|* um,|_|de-|cus at- que|vo- lup- * *|* * * * tas cu-|
 B8 B8 | G12 G4 | E16- | E8 z4 e4 | d4 c2 B4 A2 A4 | F4 F8 G4- | G4 G4 G2 A2 B2 G2 | A8 B4 B4 | %22
w: ra- rum|re- qui-|es,|_ de-|li- ti- æ- que me-|æ in cui-|* us spe- * * *|* ro i-|
 c6 c2 c4 c4 | B6 B2 B4 d2 c2 | B2 A2 B6 A2 G4- | G2 FE F4 G8 | z16 | z8 A6 A2 | A4 d6 c2 B2 A2 | %29
w: da- li- as com-|pes- ce- re flam- *||* * * * mas||vin- ce-|re te- * * *|
 G4 B6 A2 A4- | A4 ^G4 A8 | z8 z4 B4 | G2 F2 G2 A2 B4 A4 | B8 A4 G4 | F8 G4 G4- | G4 G4 G8 | %36
w: * la _ si-|* * nu|læ-|te- * * * * mur|gra- tes- que|de- o, me-|* a spon-|
 F4 E4 e8 | d4 A4 B4 d4- | d2 c2 B6 A2 G4- | G2 FE F4 G8 | B16 | B8 z8 | c16 | c8 z4 B4 | %44
w: sa to- nan-|ti per- sol- va-||* * * * mus,|i-|o,|i-|o, lux|
 A4 G4 A4 B4 | A8 A4 A4 | c8 B4 B4 | d6 c2 A2 B2 c4- | c2 B2 B2 AG A8 | B4 B6 B2 A4 | F4 G4 A8 | %51
w: ge- ni- a- lis|ad- est ut|mo- do con-|trac- * * * *||tum so- li- ta|pi- e- ta-|
 G8 z4 G4 | G4 A4 B8 | c12 c4 | B4 B4 d6 c2 | B4 A4 G8- | G8 F8- | F8 G8- | G8 G8- | G8 E8 | D16 | %61
w: te fe-|cun- det con-|in- gi-|um, e- ter- *|* na det-|* que|_ qui-|* e-|* te|fru-|
 D4 D4 d6 c2 | B4 A4 G8- | G8 F8- | F8 G8- | G8 G8- | G8 E8 | D16 | !fermata!D16 |] %69
w: i, e- ter- *|* na det-|* que|_ qui-|* e-|* te|fru-|i.|
V:2
 x8 | z2 z2 z2 x2 |[K:G][M:4/2][K:treble] D16 | E12 E4 | E8 D8 | G8 G8- | G8 A8 | A4 G8 F2 E2 | %8
w: ||Præ-|si- di-|um Sa-|* ra|_ dul-|ce me- * *|
 F8 G8- | G8 G8- | G8 G4 G4- | G4 G8 A4 | A8 F6 G2 | A8 F8 | z4 G4 G8 | E4 E8 E4 | C16- | %17
w: * um,|_ de-|* cus at-|* que vo-|lup- * *|* tas|cu- ra-|rum re- qui-|es,|
 C8 z4 G4 | G4 E2 G4 F2 E4 | D8 D8 | E8 C4 G4- | G2 FE F4 G4 G4 | G6 G2 G8 | z4 G6 F2 G4 | %24
w: _ de-|li- ti- æ- que me-|æ in|cui- us spe-|* * * * ro i-|da- li- as|com- * *|
 F6 F2 G4 D4- | D8 E4 E4 | D6 D2 D4 D4 | E8 F8 | F6 F2 G4 D4 | E4 F2 G2 E8- | E8 E8- | E8 z4 G4 | %32
w: pes- ce- re flam-|* mas a-|li- ge- ri- que|de- i|vin- ce- re te-|la si- * *|* nu|_ læ-|
 B2 A2 G2 F2 G4 F4 | G4 G4 F4 E4- | E2 ^D^C D4 E4 E4- | E4 E4 D8 | D4 B,4 G8 | F8 G8- | G8 D8 | %39
w: te- * * * * mur|gra- tes- que de-|* * * * o, me-|* a spon-|sa to- nan-|ti per-|* sol-|
 D12 D4 | G8 F8 | G8 G8- | G8 G8- | G8 z4 G4 | E4 D4 E8 | A4 E4 F4 F4 | A8 G4 G4 | %47
w: va- mus,|i- *|o, i-|* o,|_ lux|ge- ni- a-|lis ad- est ut|mo- do con-|
 F2 E2 D2 E2 F2 G2 A4- | A2 G2 G6 FE F4 | G4 G6 G2 F4 | D4 D4 =F8 | E8 D8 | E4 F4 G4 G4- | %53
w: trac- * * * * * *||tum so- li- ta|pi- e- ta-|te fe-|cun- det con- in-|
 G2 E2 G8 F4 | G8 z4 D4 | G4 F4 E2 D2 D4- | D2 ^CB, C4 D8- | D8 E8- | E8 D8- | D4 D6 CB, C4 | %60
w: * * * gi-|um, e-|ter- na det- * *|* * * * que|_ qui-|* e-|* * * * te|
 B,8 A,8 | B,8 z4 D4 | G4 F4 E2 D2 D4- | D2 ^CB, C4 D8- | D8 E8- | E8 D8- | D4 D6 CB, C4 | %67
w: fru- *|i, e-|ter- na det- * *|* * * * que|_ qui-|* e-|* * * * te|
 B,8 A,8 | B,16 |] %69
w: fru- *|i.|
V:3
 x8 | z2 z2 z2 x2 |[K:G][M:4/2][K:treble-8] B16 | B12 c4 | c4 c6 BA B2 c2 | d2 B2 e4 d4 B2 c2 | %6
w: ||Præ-|si- di-|um Sa- * * * *|* * * ra, Sa- *|
 d2 B2 e4 c4 =f4- | f4 d4 d8- | d8 d8 | e16 | B8 c8 | d8 e4 =f4 | e4 d2 c2 d8 | e8 d8- | d8 z4 e4 | %15
w: * * * ra dul-|* ce me-|* um,|de-|cus _|at- que vo-|lup- * * *|* tas|_ cu-|
 B8 c8 | G12 G4 | G8 z4 c4 | B4 c2 d4 d2 c4 | A8 B8 | c8 e8 | d8 d4 d4 | e6 e2 e4 e4 | %23
w: ra- rum|re- qui-|es, de-|li- ti- æ- que me-|æ in|cui- us|spe- ro i-|da- li- as com-|
 d6 d2 d4 G2 A2 | B2 c2 d6 c2 B4 | A8 c8 | B6 A2 B4 G2 d2- | d2 ^cB c4 d8 | A6 A2 B4 G2 A2 | %29
w: pes- ce- re flam- *||mas a-|li- ge- ri- que de-|* * * * i|vin- ce- re te- *|
 B2 c2 d4 c8 | B8 A4 c4 | A2 G2 A2 B2 c4 d4 | z8 z4 d4- | d4 d8 B4 | B8 B4 c4- | c4 c4 B8 | %36
w: * * * la|si- nu læ-|te- * * * * mur|gra-|* tes- que|de- o, me-|* a spon-|
 A4 G4 c8 | A4 d4 d2 c2 B2 A2 | B4 d6 c2 B2 G2 | A8 B8 | e8 d8 | d8 e8- | e8 e8- | e8 z4 d4 | %44
w: sa to- nan-|ti per- sol- * * *|* va- * * *|* mus,|i- *|o, i-|* o,|_ lux|
 c4 B4 c2 c2 d4- | d2 ^cB c4 d8 | z4 A4 e8 | B6 c2 d4 A4 | e8 d4 d4- | d2 d2 d4 d6 cB | A4 B4 c8 | %51
w: ge- ni- a- lis ad-|* * * * est|ut mo-|do _ _ con-|trac- tum so-|* li- ta pi- * *|* e- ta-|
 c4 c4 B6 A2 | B2 G2 d8 d4 | e8 c4 c4 | d8 z4 B4 | d6 c2 B4 B4 | G8 A8- | A8 c8- | c8 B8- | %59
w: te fe- cun- *|* * * det|con- in- gi-|um, e-|ter- * * na|det- que|_ qui-|* e-|
 B8 A6 G2 | F4 G6 FE F4 | G8 z4 G4 | d6 c2 B4 B4 | G8 A8- | A8 c8- | c8 B8- | B8 A6 G2 | %67
w: |te fru- * * *|i, e-|ter- * * na|det- que|_ qui-|* e-||
 F4 G6 FE F4 | G16 |] %69
w: te fru- * * *|i.|
V:4
 x8 | z2 z2 z2 x2 |[K:G][M:4/2] G,16 | E,12 C,4 | C,8 G,6 A,2 | B,2 G,2 C4 G,6 A,2 | %6
w: ||Præ-|si- di-|um Sa- *|* * * ra _|
 B,2 G,2 C4 =F,8- | F,4 G,4 D,8- | D,8 G,8 | z8 E,8- | E,8 C,8 | G,6 F,2 E,4 D,4 | A,8 B,8 | %13
w: _ _ _ dul-|* ce me-|* um,|de-|* cus|at- * * que|vo- lup-|
 A,8 D,4 D,4 | G,8 E,8- | E,8 C,8- | C,4 C,4 C,8- | C,8 z4 C,4 | G,4 A,2 G,4 D,2 A,4 | D,8 z8 | %20
w: * tas cu-|ra- rum|_ re-|* qui- es,|_ de-|li- ti- æ- que me-|æ|
 z16 | z4 D,4 G,6 G,2 | C,4 C,4 C6 C2 | G,8 B,6 C2 | D2 C2 B,2 A,2 G,8 | D,8 z4 C,4 | %26
w: |i- da- li-|as com- pes- ce-|re flam- *||mas a-|
 G,6 F,2 G,4 B,4 | A,8 D,4 D,4- | D,2 D,2 D,4 G,6 F,2 | E,4 B,,4 C,6 D,2 | E,8 A,,4 A,4 | %31
w: li- ge- ri- que|de- i vin-|* ce- re te- *|* la si- *|* nu læ-|
 C2 B,2 A,2 G,2 A,4 G,4 | z16 | G,8 D,4 E,4 | B,,8 E,4 C,4- | C,4 C,4 G,8 | D,4 E,4 C,8 | %37
w: te- * * * * mur||gra- tes- que|de- o, me-|* a spon-|sa to- nan-|
 D,8 G,8- | G,8 G,8 | D,8 G,8 | E,8 B,8 | G,8 C8- | C8 C8- | C8 z4 G,4 | A,4 B,4 A,4 G,4 | %45
w: ti per-|* sol-|va- mus,|i- *|o, i-|* o,|_ lux|ge- ni- a- lis|
 A,8 D,8 | z16 | z16 | z16 | G,6 G,2 G,4 D,4- | D,4 G,4 =F,8 | C,4 C,4 G,6 F,2 | E,4 D,4 G,8 | %53
w: ad- est||||so- li- ta pi-|* e- ta-|te fe- cun- *|* det con-|
 C6 B,2 A,4 A,4 | G,4 G,4 B,6 A,2 | G,4 D,4 G,6 F,2 | E,8 D,8- | D,8 C,8- | C,8 G,,8- | G,,8 A,,8 | %60
w: in- * * gi-|um, e- ter- *|* na det- *|* que|_ qui-|* e-|* te|
 B,,6 C,2 D,8 | G,,4 G,4 B,6 A,2 | G,4 D,4 G,6 F,2 | E,8 D,8- | D,8 C,8- | C,8 G,,8- | G,,8 A,,8 | %67
w: fru- * *|i, e- ter- *|* na det- *|* que|_ qui-|* e-|* te|
 B,,6 C,2 D,8 | G,,16 |] %69
w: fru- * *|i.|

